packages/amis-ui/src/icons/column-filter.svg

<?xml version="1.0" encoding="UTF-8"?>
<svg viewBox="0 0 12 12" version="1.1" xmlns="http://www.w3.org/2000/svg" xmlns:xlink="http://www.w3.org/1999/xlink">
	<g  stroke="none" stroke-width="1" fill="none" fill-rule="evenodd">
		<g fill="currentColor">
			<path d="M0,0 L4,4.999 L4.082,10 L8,12 L8,4.999 L12,0 L0,0 Z M5.0528196,9.05445227 L4.97933146,4.82735426 L4.97320745,4.49967969 L4.75580505,4.24311339 L2,1 L10,1 L7.24419495,4.24311339 L7.02066854,4.50640615 L7.02066854,4.84272902 L7.02066854,10 L5.0528196,9.05445227 Z" >
			</path>
		</g>
	</g>
</svg>

<svg viewBox="0 0 12 12" xmlns="http://www.w3.org/2000/svg"><path d="m0 0 4 4.999L4.082 10 8 12V4.999L12 0H0Zm5.053 9.054-.074-4.227-.006-.327-.217-.257L2 1h8L7.244 4.243l-.223.263V10l-1.968-.946Z" fill="currentColor" fill-rule="evenodd"/></svg>
